!!!COM: Music21
!!!OTL: polka_Revilles
!!!OMV: polka_Revilles
**kern
*clefG2
*k[f#]
*G:
*M2/4
=1
8gL 8gg
16.ggL
32eeJJk
=
16ddLL
16b
16b
16eeJJ
4ryy
=
16ccLL
16a
16a
16eeJJ
4ryy
=
16ddLL
16b
16a
32bL
32aJJJ
4ryy
=
8gL
16.ggL
32eeJJk
4ryy
=
16ddLL
16b
16b
16eeJJ
4ryy
=
16ddLL
16b
16a
32bL
32aJJJ
4ryy
=
8gL
16bbL
16aaJJ
4ryy
!!linebreak:original
=
8ggL
16ggL
16eeJJ
4ryy
=
16ddLL
16b
16b
16eeJJ
4ryy
=
16ccLL
16a
16a
16eeJJ
4ryy
=
16ddLL
16b
16a
32bL
32aJJJ
4ryy
=
8gL
16.ggL
32eeJJk
4ryy
=
16ddLL
16b
16b
16eeJJ
4ryy
=
16ddLL
16b
16a
32bL
32aJJJ
4ryy
=
16gLL
16a
16b
16ddJJ
4ryy
!!linebreak:original
=
8eeL
16ddL
16eeJJ
4ryy
=
8ggL
16eeL
16ggJJ
4ryy
=
8aaL
16bbL
16aaJJ
4ryy
=
8ggL
16ff#L
16ddJJ
4ryy
=
8eeL
16ddL
16eeJJ
4ryy
=
16ggLL
16aa
16ff#
16ggJJ
4ryy
=
16eeLL
16a
16a
16bJJ
4ryy
=
8aL
32bLL
32ccJ
16ddJJ
4ryy
!!linebreak:original
=
8eeL
16ddL
16eeJJ
4ryy
=
8ggL
16eeL
16ggJJ
4ryy
=
8aaL
16bbL
16aaJJ
4ryy
=
8ggL
16eeL
16ggJJ
4ryy
=
8aaL
16ggL
16eeJJ
4ryy
=
8aaL
16ggL
16eeJJ
4ryy
=
8aaL
16ggL
16eeJJ
4ryy
=
8aaL
16bbL
16aaJJ
4ryy
=||
*-
